public/images/mulberry-symbols/sandpaper.svg

<svg xmlns="http://www.w3.org/2000/svg" width="850.394" height="850.394" viewBox="0 0 850.394 850.394" overflow="visible"><path d="M782.45 233.13l-19.92 441.55-79.221-12.62L158.29 578.4l94.15-381.141 8.77-35.51 521.24 71.381zm-37.78 68.02c0-3.38-2.41-6.19-5.4-6.19-2.97 0-5.369 2.81-5.369 6.19 0 3.45 2.399 6.26 5.369 6.26 2.99 0 5.4-2.81 5.4-6.26zm-26.96 126.78c0-3.45-2.41-6.26-5.38-6.26-2.98 0-5.39 2.81-5.39 6.26 0 3.391 2.409 6.19 5.39 6.19 2.97 0 5.38-2.8 5.38-6.19zm-21.17 148.32c0-3.45-2.42-6.25-5.38-6.25-2.99 0-5.4 2.8-5.4 6.25 0 3.38 2.41 6.2 5.4 6.2 2.96 0 5.38-2.82 5.38-6.2zm-51.41-268.4c0-3.38-2.41-6.19-5.399-6.19-2.961 0-5.37 2.81-5.37 6.19 0 3.45 2.409 6.26 5.37 6.26 2.989 0 5.399-2.81 5.399-6.26zm-36.57 174.3c0-3.45-2.42-6.25-5.369-6.25-3 0-5.4 2.8-5.4 6.25 0 3.38 2.4 6.199 5.4 6.199 2.949.001 5.369-2.819 5.369-6.199zM582 247.04c0-3.39-2.42-6.2-5.4-6.2-2.97 0-5.38 2.81-5.38 6.2 0 3.44 2.41 6.26 5.38 6.26 2.98 0 5.4-2.82 5.4-6.26zm-14.94 328.43c0-3.38-2.409-6.2-5.399-6.2-2.97 0-5.38 2.82-5.38 6.2 0 3.45 2.41 6.25 5.38 6.25 2.989 0 5.399-2.8 5.399-6.25zM537.18 382.5c0-3.39-2.41-6.2-5.399-6.2-2.971 0-5.38 2.81-5.38 6.2 0 3.44 2.409 6.25 5.38 6.25 2.989 0 5.399-2.81 5.399-6.25zm-53.93-121.6c0-3.38-2.41-6.19-5.41-6.19-2.96 0-5.37 2.81-5.37 6.19 0 3.45 2.41 6.26 5.37 6.26 3 0 5.41-2.81 5.41-6.26zm-21.86 174.02c0-3.38-2.409-6.2-5.409-6.2-2.961 0-5.37 2.82-5.37 6.2 0 3.45 2.409 6.26 5.37 6.26 2.999 0 5.409-2.81 5.409-6.26zm-2.22 148.29c0-3.38-2.41-6.2-5.39-6.2-2.971 0-5.391 2.82-5.391 6.2 0 3.45 2.42 6.25 5.391 6.25 2.98 0 5.39-2.8 5.39-6.25zm-71.39-282c0-3.44-2.41-6.25-5.38-6.25-2.99 0-5.39 2.81-5.39 6.25 0 3.39 2.4 6.2 5.39 6.2 2.97 0 5.38-2.81 5.38-6.2zm-10.59 203.56c0-3.449-2.41-6.26-5.38-6.26-2.98 0-5.39 2.811-5.39 6.26 0 3.381 2.41 6.19 5.39 6.19 2.97 0 5.38-2.81 5.38-6.19zm-46.41-118.89c0-3.45-2.41-6.26-5.37-6.26-2.99 0-5.4 2.81-5.4 6.26 0 3.38 2.41 6.19 5.4 6.19 2.96 0 5.37-2.81 5.37-6.19zm-13.41-149.49c0-3.39-2.42-6.2-5.41-6.2-2.96 0-5.37 2.81-5.37 6.2 0 3.45 2.41 6.26 5.37 6.26 2.99 0 5.41-2.81 5.41-6.26zm-54.1 284.5c0-3.449-2.4-6.25-5.37-6.25-2.99 0-5.4 2.801-5.4 6.25 0 3.391 2.41 6.19 5.4 6.19 2.97 0 5.37-2.8 5.37-6.19zm-25.45-98.49c0-3.45-2.41-6.26-5.37-6.26-2.99 0-5.4 2.81-5.4 6.26 0 3.38 2.41 6.19 5.4 6.19 2.96 0 5.37-2.81 5.37-6.19z" fill="#ffeec8"/><path d="M158.29 578.4l525.02 83.659-.029.21-37.96-3.17L96.87 613.26l75.25-369.01 11.07-54.28 69.25 7.29-94.15 381.14zm45.24-308.37c0-3.39-2.41-6.2-5.4-6.2-2.97 0-5.38 2.81-5.38 6.2 0 3.45 2.41 6.26 5.38 6.26 2.99 0 5.4-2.81 5.4-6.26zm-49.8 220.78c0-3.39-2.41-6.199-5.4-6.199-2.97 0-5.38 2.81-5.38 6.199 0 3.45 2.41 6.25 5.38 6.25 2.99 0 5.4-2.8 5.4-6.25z" fill="#ffeec8"/><path d="M645.32 659.1L70.3 676.24l34.9-430.6 66.92-1.39-75.25 369.01 548.45 45.84zM132.15 331.03c0-3.38-2.41-6.19-5.4-6.19-2.97 0-5.38 2.81-5.38 6.19 0 3.45 2.41 6.26 5.38 6.26 2.99 0 5.4-2.81 5.4-6.26zm-11.63 312.08c0-3.391-2.41-6.19-5.39-6.19-2.97 0-5.38 2.8-5.38 6.19 0 3.449 2.41 6.26 5.38 6.26 2.98 0 5.39-2.81 5.39-6.26z" fill="#ffeec8"/><path d="M739.27 294.96c2.99 0 5.4 2.81 5.4 6.19 0 3.45-2.41 6.26-5.4 6.26-2.97 0-5.369-2.81-5.369-6.26-.001-3.38 2.399-6.19 5.369-6.19zM712.33 421.67c2.97 0 5.38 2.81 5.38 6.26 0 3.391-2.41 6.19-5.38 6.19-2.98 0-5.39-2.8-5.39-6.19 0-3.45 2.41-6.26 5.39-6.26zM691.16 570c2.96 0 5.38 2.8 5.38 6.25 0 3.38-2.42 6.2-5.38 6.2-2.99 0-5.4-2.82-5.4-6.2 0-3.45 2.41-6.25 5.4-6.25zM639.73 301.66c2.989 0 5.399 2.81 5.399 6.19 0 3.45-2.41 6.26-5.399 6.26-2.961 0-5.37-2.81-5.37-6.26 0-3.38 2.41-6.19 5.37-6.19zM603.19 475.9c2.949 0 5.369 2.8 5.369 6.25 0 3.38-2.42 6.199-5.369 6.199-3 0-5.4-2.819-5.4-6.199 0-3.45 2.4-6.25 5.4-6.25zM576.6 240.84c2.98 0 5.4 2.81 5.4 6.2 0 3.44-2.42 6.26-5.4 6.26-2.97 0-5.38-2.82-5.38-6.26 0-3.39 2.41-6.2 5.38-6.2zM561.66 569.27c2.99 0 5.399 2.82 5.399 6.2 0 3.45-2.409 6.25-5.399 6.25-2.97 0-5.38-2.8-5.38-6.25 0-3.38 2.41-6.2 5.38-6.2zM531.78 376.3c2.989 0 5.399 2.81 5.399 6.2 0 3.44-2.41 6.25-5.399 6.25-2.971 0-5.38-2.81-5.38-6.25 0-3.39 2.41-6.2 5.38-6.2zM477.84 254.71c3 0 5.41 2.81 5.41 6.19 0 3.45-2.41 6.26-5.41 6.26-2.96 0-5.37-2.81-5.37-6.26 0-3.38 2.41-6.19 5.37-6.19zM455.98 428.72c3 0 5.409 2.82 5.409 6.2 0 3.45-2.409 6.26-5.409 6.26-2.961 0-5.37-2.81-5.37-6.26 0-3.38 2.41-6.2 5.37-6.2zM453.78 577.01c2.979 0 5.39 2.82 5.39 6.2 0 3.45-2.41 6.25-5.39 6.25-2.971 0-5.391-2.8-5.391-6.25.001-3.38 2.421-6.2 5.391-6.2zM382.4 294.96c2.97 0 5.38 2.81 5.38 6.25 0 3.39-2.41 6.2-5.38 6.2-2.99 0-5.39-2.81-5.39-6.2 0-3.44 2.4-6.25 5.39-6.25zM371.81 498.51c2.97 0 5.38 2.811 5.38 6.26 0 3.381-2.41 6.19-5.38 6.19-2.98 0-5.39-2.81-5.39-6.19 0-3.45 2.41-6.26 5.39-6.26zM325.41 379.62c2.96 0 5.37 2.81 5.37 6.26 0 3.38-2.41 6.19-5.37 6.19-2.99 0-5.4-2.81-5.4-6.19 0-3.45 2.41-6.26 5.4-6.26zM311.96 230.19c2.99 0 5.41 2.81 5.41 6.2 0 3.45-2.42 6.26-5.41 6.26-2.96 0-5.37-2.81-5.37-6.26 0-3.39 2.41-6.2 5.37-6.2zM257.9 514.64c2.97 0 5.37 2.801 5.37 6.25 0 3.391-2.4 6.19-5.37 6.19-2.99 0-5.4-2.8-5.4-6.19 0-3.45 2.41-6.25 5.4-6.25zM232.45 416.14c2.96 0 5.37 2.81 5.37 6.26 0 3.38-2.41 6.19-5.37 6.19-2.99 0-5.4-2.81-5.4-6.19 0-3.45 2.41-6.26 5.4-6.26zM198.13 263.83c2.99 0 5.4 2.81 5.4 6.2 0 3.45-2.41 6.26-5.4 6.26-2.97 0-5.38-2.81-5.38-6.26 0-3.39 2.41-6.2 5.38-6.2zM148.33 484.61c2.99 0 5.4 2.81 5.4 6.199 0 3.45-2.41 6.25-5.4 6.25-2.97 0-5.38-2.8-5.38-6.25 0-3.389 2.41-6.199 5.38-6.199zM126.75 324.84c2.99 0 5.4 2.81 5.4 6.19 0 3.45-2.41 6.26-5.4 6.26-2.97 0-5.38-2.81-5.38-6.26 0-3.38 2.41-6.19 5.38-6.19zM115.13 636.92c2.98 0 5.39 2.8 5.39 6.19 0 3.449-2.41 6.26-5.39 6.26-2.97 0-5.38-2.811-5.38-6.26 0-3.39 2.41-6.19 5.38-6.19z"/><g fill="none" stroke="#000" stroke-width="19.92"><path d="M252.44 197.26l8.77-35.51 521.24 71.38-19.92 441.55-79.22-12.62-525.02-83.66z"/><path d="M683.28 662.27l-37.96-3.17-548.45-45.84 75.25-369.01 11.07-54.28 69.25 7.29"/><path d="M646.24 659.07l-.92.03L70.3 676.24l34.9-430.6 66.92-1.39"/></g><path fill="none" d="M0 0h850.394v850.394H0z"/></svg>

<?xml version="1.0" encoding="iso-8859-1"?>
<!-- Generator: Adobe Illustrator 12.0.1, SVG Export Plug-In . SVG Version: 6.00 Build 51448)  -->
<!DOCTYPE svg PUBLIC "-//W3C//DTD SVG 1.1//EN" "http://www.w3.org/Graphics/SVG/1.1/DTD/svg11.dtd" [
	<!ENTITY ns_svg "http://www.w3.org/2000/svg">
	<!ENTITY ns_xlink "http://www.w3.org/1999/xlink">
]>
<svg  version="1.1" id="Layer_1" xmlns="&ns_svg;" xmlns:xlink="&ns_xlink;" width="850.394" height="850.394"
	 viewBox="0 0 850.394 850.394" style="overflow:visible;enable-background:new 0 0 850.394 850.394;" xml:space="preserve">
<g id="XMLID_4_">
	<g>
		<path style="fill:#FFEEC8;" d="M782.45,233.13l-19.92,441.55l-79.221-12.62L158.29,578.4l94.15-381.141l8.77-35.51L782.45,233.13z
			 M744.67,301.15c0-3.38-2.41-6.19-5.4-6.19c-2.97,0-5.369,2.81-5.369,6.19c0,3.45,2.399,6.26,5.369,6.26
			C742.26,307.41,744.67,304.6,744.67,301.15z M717.71,427.93c0-3.45-2.41-6.26-5.38-6.26c-2.98,0-5.39,2.81-5.39,6.26
			c0,3.391,2.409,6.19,5.39,6.19C715.3,434.12,717.71,431.32,717.71,427.93z M696.54,576.25c0-3.45-2.42-6.25-5.38-6.25
			c-2.99,0-5.4,2.8-5.4,6.25c0,3.38,2.41,6.2,5.4,6.2C694.12,582.45,696.54,579.63,696.54,576.25z M645.13,307.85
			c0-3.38-2.41-6.19-5.399-6.19c-2.961,0-5.37,2.81-5.37,6.19c0,3.45,2.409,6.26,5.37,6.26
			C642.72,314.11,645.13,311.3,645.13,307.85z M608.56,482.15c0-3.45-2.42-6.25-5.369-6.25c-3,0-5.4,2.8-5.4,6.25
			c0,3.38,2.4,6.199,5.4,6.199C606.14,488.35,608.56,485.53,608.56,482.15z M582,247.04c0-3.39-2.42-6.2-5.4-6.2
			c-2.97,0-5.38,2.81-5.38,6.2c0,3.44,2.41,6.26,5.38,6.26C579.58,253.3,582,250.48,582,247.04z M567.06,575.47
			c0-3.38-2.409-6.2-5.399-6.2c-2.97,0-5.38,2.82-5.38,6.2c0,3.45,2.41,6.25,5.38,6.25C564.65,581.72,567.06,578.92,567.06,575.47z
			 M537.18,382.5c0-3.39-2.41-6.2-5.399-6.2c-2.971,0-5.38,2.81-5.38,6.2c0,3.44,2.409,6.25,5.38,6.25
			C534.77,388.75,537.18,385.94,537.18,382.5z M483.25,260.9c0-3.38-2.41-6.19-5.41-6.19c-2.96,0-5.37,2.81-5.37,6.19
			c0,3.45,2.41,6.26,5.37,6.26C480.84,267.16,483.25,264.35,483.25,260.9z M461.39,434.92c0-3.38-2.409-6.2-5.409-6.2
			c-2.961,0-5.37,2.82-5.37,6.2c0,3.45,2.409,6.26,5.37,6.26C458.98,441.18,461.39,438.37,461.39,434.92z M459.17,583.21
			c0-3.38-2.41-6.2-5.39-6.2c-2.971,0-5.391,2.82-5.391,6.2c0,3.45,2.42,6.25,5.391,6.25C456.76,589.46,459.17,586.66,459.17,583.21
			z M387.78,301.21c0-3.44-2.41-6.25-5.38-6.25c-2.99,0-5.39,2.81-5.39,6.25c0,3.39,2.4,6.2,5.39,6.2
			C385.37,307.41,387.78,304.6,387.78,301.21z M377.19,504.77c0-3.449-2.41-6.26-5.38-6.26c-2.98,0-5.39,2.811-5.39,6.26
			c0,3.381,2.41,6.19,5.39,6.19C374.78,510.96,377.19,508.15,377.19,504.77z M330.78,385.88c0-3.45-2.41-6.26-5.37-6.26
			c-2.99,0-5.4,2.81-5.4,6.26c0,3.38,2.41,6.19,5.4,6.19C328.37,392.07,330.78,389.26,330.78,385.88z M317.37,236.39
			c0-3.39-2.42-6.2-5.41-6.2c-2.96,0-5.37,2.81-5.37,6.2c0,3.45,2.41,6.26,5.37,6.26C314.95,242.65,317.37,239.84,317.37,236.39z
			 M263.27,520.89c0-3.449-2.4-6.25-5.37-6.25c-2.99,0-5.4,2.801-5.4,6.25c0,3.391,2.41,6.19,5.4,6.19
			C260.87,527.08,263.27,524.28,263.27,520.89z M237.82,422.4c0-3.45-2.41-6.26-5.37-6.26c-2.99,0-5.4,2.81-5.4,6.26
			c0,3.38,2.41,6.19,5.4,6.19C235.41,428.59,237.82,425.78,237.82,422.4z"/>
		<path style="fill:#FFEEC8;" d="M158.29,578.4l525.02,83.659l-0.029,0.21l-37.96-3.17L96.87,613.26l75.25-369.01l11.07-54.28
			l69.25,7.29L158.29,578.4z M203.53,270.03c0-3.39-2.41-6.2-5.4-6.2c-2.97,0-5.38,2.81-5.38,6.2c0,3.45,2.41,6.26,5.38,6.26
			C201.12,276.29,203.53,273.48,203.53,270.03z M153.73,490.81c0-3.39-2.41-6.199-5.4-6.199c-2.97,0-5.38,2.81-5.38,6.199
			c0,3.45,2.41,6.25,5.38,6.25C151.32,497.06,153.73,494.26,153.73,490.81z"/>
		<path style="fill:#FFEEC8;" d="M645.32,659.1L70.3,676.24l34.9-430.6l66.92-1.39L96.87,613.26L645.32,659.1z M132.15,331.03
			c0-3.38-2.41-6.19-5.4-6.19c-2.97,0-5.38,2.81-5.38,6.19c0,3.45,2.41,6.26,5.38,6.26C129.74,337.29,132.15,334.48,132.15,331.03z
			 M120.52,643.11c0-3.391-2.41-6.19-5.39-6.19c-2.97,0-5.38,2.8-5.38,6.19c0,3.449,2.41,6.26,5.38,6.26
			C118.11,649.37,120.52,646.56,120.52,643.11z"/>
		<path d="M739.27,294.96c2.99,0,5.4,2.81,5.4,6.19c0,3.45-2.41,6.26-5.4,6.26c-2.97,0-5.369-2.81-5.369-6.26
			C733.9,297.77,736.3,294.96,739.27,294.96z"/>
		<path d="M712.33,421.67c2.97,0,5.38,2.81,5.38,6.26c0,3.391-2.41,6.19-5.38,6.19c-2.98,0-5.39-2.8-5.39-6.19
			C706.94,424.48,709.35,421.67,712.33,421.67z"/>
		<path d="M691.16,570c2.96,0,5.38,2.8,5.38,6.25c0,3.38-2.42,6.2-5.38,6.2c-2.99,0-5.4-2.82-5.4-6.2
			C685.76,572.8,688.17,570,691.16,570z"/>
		<path d="M639.73,301.66c2.989,0,5.399,2.81,5.399,6.19c0,3.45-2.41,6.26-5.399,6.26c-2.961,0-5.37-2.81-5.37-6.26
			C634.36,304.47,636.77,301.66,639.73,301.66z"/>
		<path d="M603.19,475.9c2.949,0,5.369,2.8,5.369,6.25c0,3.38-2.42,6.199-5.369,6.199c-3,0-5.4-2.819-5.4-6.199
			C597.79,478.7,600.19,475.9,603.19,475.9z"/>
		<path d="M576.6,240.84c2.98,0,5.4,2.81,5.4,6.2c0,3.44-2.42,6.26-5.4,6.26c-2.97,0-5.38-2.82-5.38-6.26
			C571.22,243.65,573.63,240.84,576.6,240.84z"/>
		<path d="M561.66,569.27c2.99,0,5.399,2.82,5.399,6.2c0,3.45-2.409,6.25-5.399,6.25c-2.97,0-5.38-2.8-5.38-6.25
			C556.28,572.09,558.69,569.27,561.66,569.27z"/>
		<path d="M531.78,376.3c2.989,0,5.399,2.81,5.399,6.2c0,3.44-2.41,6.25-5.399,6.25c-2.971,0-5.38-2.81-5.38-6.25
			C526.4,379.11,528.81,376.3,531.78,376.3z"/>
		<path d="M477.84,254.71c3,0,5.41,2.81,5.41,6.19c0,3.45-2.41,6.26-5.41,6.26c-2.96,0-5.37-2.81-5.37-6.26
			C472.47,257.52,474.88,254.71,477.84,254.71z"/>
		<path d="M455.98,428.72c3,0,5.409,2.82,5.409,6.2c0,3.45-2.409,6.26-5.409,6.26c-2.961,0-5.37-2.81-5.37-6.26
			C450.61,431.54,453.02,428.72,455.98,428.72z"/>
		<path d="M453.78,577.01c2.979,0,5.39,2.82,5.39,6.2c0,3.45-2.41,6.25-5.39,6.25c-2.971,0-5.391-2.8-5.391-6.25
			C448.39,579.83,450.81,577.01,453.78,577.01z"/>
		<path d="M382.4,294.96c2.97,0,5.38,2.81,5.38,6.25c0,3.39-2.41,6.2-5.38,6.2c-2.99,0-5.39-2.81-5.39-6.2
			C377.01,297.77,379.41,294.96,382.4,294.96z"/>
		<path d="M371.81,498.51c2.97,0,5.38,2.811,5.38,6.26c0,3.381-2.41,6.19-5.38,6.19c-2.98,0-5.39-2.81-5.39-6.19
			C366.42,501.32,368.83,498.51,371.81,498.51z"/>
		<path d="M325.41,379.62c2.96,0,5.37,2.81,5.37,6.26c0,3.38-2.41,6.19-5.37,6.19c-2.99,0-5.4-2.81-5.4-6.19
			C320.01,382.43,322.42,379.62,325.41,379.62z"/>
		<path d="M311.96,230.19c2.99,0,5.41,2.81,5.41,6.2c0,3.45-2.42,6.26-5.41,6.26c-2.96,0-5.37-2.81-5.37-6.26
			C306.59,233,309,230.19,311.96,230.19z"/>
		<path d="M257.9,514.64c2.97,0,5.37,2.801,5.37,6.25c0,3.391-2.4,6.19-5.37,6.19c-2.99,0-5.4-2.8-5.4-6.19
			C252.5,517.44,254.91,514.64,257.9,514.64z"/>
		<path d="M232.45,416.14c2.96,0,5.37,2.81,5.37,6.26c0,3.38-2.41,6.19-5.37,6.19c-2.99,0-5.4-2.81-5.4-6.19
			C227.05,418.95,229.46,416.14,232.45,416.14z"/>
		<path d="M198.13,263.83c2.99,0,5.4,2.81,5.4,6.2c0,3.45-2.41,6.26-5.4,6.26c-2.97,0-5.38-2.81-5.38-6.26
			C192.75,266.64,195.16,263.83,198.13,263.83z"/>
		<path d="M148.33,484.61c2.99,0,5.4,2.81,5.4,6.199c0,3.45-2.41,6.25-5.4,6.25c-2.97,0-5.38-2.8-5.38-6.25
			C142.95,487.42,145.36,484.61,148.33,484.61z"/>
		<path d="M126.75,324.84c2.99,0,5.4,2.81,5.4,6.19c0,3.45-2.41,6.26-5.4,6.26c-2.97,0-5.38-2.81-5.38-6.26
			C121.37,327.65,123.78,324.84,126.75,324.84z"/>
		<path d="M115.13,636.92c2.98,0,5.39,2.8,5.39,6.19c0,3.449-2.41,6.26-5.39,6.26c-2.97,0-5.38-2.811-5.38-6.26
			C109.75,639.72,112.16,636.92,115.13,636.92z"/>
	</g>
	<g>
		<polygon style="fill:none;stroke:#000000;stroke-width:19.9198;" points="252.44,197.26 261.21,161.75 782.45,233.13 
			762.53,674.68 683.31,662.06 158.29,578.4 		"/>
		<polyline style="fill:none;stroke:#000000;stroke-width:19.9198;" points="683.28,662.27 645.32,659.1 96.87,613.26 
			172.12,244.25 183.19,189.97 252.44,197.26 		"/>
		<polyline style="fill:none;stroke:#000000;stroke-width:19.9198;" points="646.24,659.07 645.32,659.1 70.3,676.24 105.2,245.64 
			172.12,244.25 		"/>
	</g>
</g>
<rect style="fill:none;" width="850.394" height="850.394"/>
</svg>
